data/tilesets/flags/labarum.svg

<?xml version="1.0" encoding="UTF-8" standalone="no"?>
<svg
   width="675"
   height="450"
   id="svg2"
   sodipodi:version="0.32"
   inkscape:version="1.1.2 (0a00cf5339, 2022-02-04)"
   version="1.1"
   sodipodi:docname="labarum.svg"
   xmlns:inkscape="http://www.inkscape.org/namespaces/inkscape"
   xmlns:sodipodi="http://sodipodi.sourceforge.net/DTD/sodipodi-0.dtd"
   xmlns="http://www.w3.org/2000/svg"
   xmlns:svg="http://www.w3.org/2000/svg">
  <sodipodi:namedview
     id="namedview8"
     pagecolor="#ffffff"
     bordercolor="#666666"
     borderopacity="1.0"
     inkscape:pageshadow="2"
     inkscape:pageopacity="0.0"
     inkscape:pagecheckerboard="0"
     showgrid="false"
     inkscape:zoom="1.3042192"
     inkscape:cx="337.36661"
     inkscape:cy="225.03886"
     inkscape:window-width="1187"
     inkscape:window-height="850"
     inkscape:window-x="425"
     inkscape:window-y="63"
     inkscape:window-maximized="0"
     inkscape:current-layer="svg2" />
  <defs
     id="defs11">
    <inkscape:perspective
       sodipodi:type="inkscape:persp3d"
       inkscape:vp_x="0 : 225 : 1"
       inkscape:vp_y="0 : 1000 : 0"
       inkscape:vp_z="675 : 225 : 1"
       inkscape:persp3d-origin="337.5 : 150 : 1"
       id="perspective15" />
  </defs>
  <path
     style="fill:#ffffff;stroke:none"
     d="M 0,0 V 450 H 675 V 0 Z"
     id="path4" />
  <path
     style="fill:#800000;stroke:none"
     d="M 283.37133,8.7591912 C 275.77558,16.733121 289.09152,31.087554 299.12686,42 l 0.318,46 v 99 l -38,-25.989 -87,-60.986 -28,-19.6114 -11.987,-9.5872 L 131.44486,56 c -13.345,1.8441 -22.567,21.6748 -29.75311,32 -2.206997,3.1711 -8.487197,10.1083 -5.215297,14.258 3.0902,3.919 12.416407,-0.039 16.968407,2.086 11.891,5.551 23.296,15.773 34,23.398 29.173,20.778 58.842,40.862 88,61.66 17.158,12.238 34.421,26.659 53,36.598 v 1 c -15.838,8.473 -30.222,20.609 -45,30.809 -31.831,21.973 -63.208,44.616 -95,66.647 -8.998,6.235 -20.343,17.491 -31,20.245 -3.75,0.97 -14.6689,-0.42 -15.62351,4.447 -0.9203,4.692 4.63301,10.321 7.07951,13.852 8.574,12.375 16.602,23.725 27.544,34 h 1 c 2.911,-5.252 1.604,-12.328 5.318,-16.946 9.934,-12.352 29.663,-21.576 42.682,-30.598 28.082,-19.46 56.611,-38.607 84,-59.018 9.813,-7.313 20.894,-13.239 30,-21.438 v 110 c 0,12.095 1.77438,35.37581 -3.66062,46.24081 -4.711,9.419 -13.21338,10.78919 -22.33938,13.75919 2.096,6.316 12.505,4 18,4 h 57 c 5.84,0 18.784,2.677 21,-4 -9.16,-2.981 -18.90038,-3.37238 -22.77638,-13.51838 -4.779,-12.509 -3.22362,-36.09362 -3.22362,-49.48162 V 267 c 12.69,11.883 28.828,20.666 43,30.698 29.248,20.704 58.453,41.524 88,61.804 6.251,4.29 16.075,8.921 20.062,15.538 3.166,5.253 1.628,15.122 8.047,17.947 5.05,2.222 9.265,-1.548 12.391,-5.161 7.394,-8.545 13.028,-18.68 19.63,-27.826 2.445,-3.386 8.088,-9.152 6.247,-13.772 -2.291,-5.75 -13.67,-2.482 -18.377,-3.647 -9.744,-2.411 -19.895,-12.536 -28,-18.273 -30.91,-21.881 -61.871,-43.728 -93,-65.283 -14.047,-9.727 -34.575,-19.434 -45,-33.025 16.212,-8.065 31.213,-21.114 46,-31.576 29.9,-21.154 59.824,-42.325 90,-63.083 11.833,-8.14 23.938,-19.636 37,-25.599 5.414,-2.471 12.175,4.561 16.639,-0.075 3.795,-3.942 -0.985,-10.2791 -3.388,-13.667 -6.174,-8.7033 -12.465,-17.4325 -18.85,-25.9815 -2.421,-3.2416 -6.787,-7.9511 -11.343,-7.7168 -6.359,0.327 -4.135,11.5765 -6.916,15.243 -6.474,8.5369 -20.39,15.0916 -29.142,21.2539 -44.224,31.1374 -88.195,62.9364 -133,93.2014 v -62 c 29.433,0 60.703,-5.228 85,-23.156 28.652,-21.1405 25.495,-54.3774 -3,-73.8154 C 382.68286,-0.142548 332.36433,8.7591912 283.37133,8.7591912 Z"
     id="path6"
     sodipodi:nodetypes="cccccccccsssccccccsssccsssccsccccsccscsssssscscsssssssssccccc" />
  <path
     style="fill:#ffffff;stroke:none"
     d="m 339.72243,46 v 46 c 11.801,0 32.474,3.9622 42.996,-1.6381 15.301,-8.1439 17.126,-35.9416 0,-43.4236 C 371.72443,42.1349 351.69743,46 339.72243,46 Z"
     id="path8" />
</svg>

<?xml version="1.0" encoding="UTF-8" standalone="no"?>
<svg
   xmlns:dc="http://purl.org/dc/elements/1.1/"
   xmlns:cc="http://creativecommons.org/ns#"
   xmlns:rdf="http://www.w3.org/1999/02/22-rdf-syntax-ns#"
   xmlns:svg="http://www.w3.org/2000/svg"
   xmlns="http://www.w3.org/2000/svg"
   xmlns:sodipodi="http://sodipodi.sourceforge.net/DTD/sodipodi-0.dtd"
   xmlns:inkscape="http://www.inkscape.org/namespaces/inkscape"
   width="675"
   height="450"
   id="svg2"
   sodipodi:version="0.32"
   inkscape:version="0.46">
  <defs
     id="defs11">
    <inkscape:perspective
       sodipodi:type="inkscape:persp3d"
       inkscape:vp_x="0 : 225 : 1"
       inkscape:vp_y="0 : 1000 : 0"
       inkscape:vp_z="675 : 225 : 1"
       inkscape:persp3d-origin="337.5 : 150 : 1"
       id="perspective15" />
  </defs>
  <path
     style="fill:#ffffff; stroke:none;"
     d="M0 0L0 450L675 450L675 0L0 0z"
     id="path4" />
  <path
     style="fill:#800000;stroke:none"
     d="M 283.37133,8.7591912 C 275.77558,16.733121 289.09152,31.087554 299.12686,42 L 299.44486,88 L 299.44486,187 L 261.44486,161.011 L 174.44486,100.025 L 146.44486,80.4136 L 134.45786,70.8264 L 131.44486,56 C 118.09986,57.8441 108.87786,77.6748 101.69175,88 C 99.484753,91.1711 93.204553,98.1083 96.476453,102.258 C 99.566653,106.177 108.89286,102.219 113.44486,104.344 C 125.33586,109.895 136.74086,120.117 147.44486,127.742 C 176.61786,148.52 206.28686,168.604 235.44486,189.402 C 252.60286,201.64 269.86586,216.061 288.44486,226 L 288.44486,227 C 272.60686,235.473 258.22286,247.609 243.44486,257.809 C 211.61386,279.782 180.23686,302.425 148.44486,324.456 C 139.44686,330.691 128.10186,341.947 117.44486,344.701 C 113.69486,345.671 102.77596,344.281 101.82135,349.148 C 100.90105,353.84 106.45436,359.469 108.90086,363 C 117.47486,375.375 125.50286,386.725 136.44486,397 L 137.44486,397 C 140.35586,391.748 139.04886,384.672 142.76286,380.054 C 152.69686,367.702 172.42586,358.478 185.44486,349.456 C 213.52686,329.996 242.05586,310.849 269.44486,290.438 C 279.25786,283.125 290.33886,277.199 299.44486,269 L 299.44486,379 C 299.44486,391.095 301.21924,414.37581 295.78424,425.24081 C 291.07324,434.65981 282.57086,436.03 273.44486,439 C 275.54086,445.316 285.94986,443 291.44486,443 L 348.44486,443 C 354.28486,443 367.22886,445.677 369.44486,439 C 360.28486,436.019 350.54448,435.62762 346.66848,425.48162 C 341.88948,412.97262 343.44486,389.388 343.44486,376 L 343.44486,267 C 356.13486,278.883 372.27286,287.666 386.44486,297.698 C 415.69286,318.402 444.89786,339.222 474.44486,359.502 C 480.69586,363.792 490.51986,368.423 494.50686,375.04 C 497.67286,380.293 496.13486,390.162 502.55386,392.987 C 507.60386,395.209 511.81886,391.439 514.94486,387.826 C 522.33886,379.281 527.97286,369.146 534.57486,360 C 537.01986,356.614 542.66286,350.848 540.82186,346.228 C 538.53086,340.478 527.15186,343.746 522.44486,342.581 C 512.70086,340.17 502.54986,330.045 494.44486,324.308 C 463.53486,302.427 432.57386,280.58 401.44486,259.025 C 387.39786,249.298 366.86986,239.591 356.44486,226 C 372.65686,217.935 387.65786,204.886 402.44486,194.424 C 432.34486,173.27 462.26886,152.099 492.44486,131.341 C 504.27786,123.201 516.38286,111.705 529.44486,105.742 C 534.85886,103.271 541.61986,110.303 546.08386,105.667 C 549.87886,101.725 545.09886,95.3879 542.69586,92 C 536.52186,83.2967 530.23086,74.5675 523.84586,66.0185 C 521.42486,62.7769 517.05886,58.0674 512.50286,58.3017 C 506.14386,58.6287 508.36786,69.8782 505.58686,73.5447 C 499.11286,82.0816 485.19686,88.6363 476.44486,94.7986 C 432.22086,125.936 388.24986,157.735 343.44486,188 L 343.44486,126 C 372.87786,126 404.14786,120.772 428.44486,102.844 C 457.09686,81.7035 453.93986,48.4666 425.44486,29.0286 C 382.68286,-0.142548 332.36433,8.7591912 283.37133,8.7591912 z"
     id="path6"
     sodipodi:nodetypes="cccccccccsssccccccsssccsssccsccccsccscsssssscscsssssssssccccc" />
  <path
     style="fill:#ffffff;stroke:none"
     d="M 339.72243,46 L 339.72243,92 C 351.52343,92 372.19643,95.9622 382.71843,90.3619 C 398.01943,82.218 399.84443,54.4203 382.71843,46.9383 C 371.72443,42.1349 351.69743,46 339.72243,46 z"
     id="path8" />
</svg>
